X: 1
T:Ad mortem festinamus
C:Livre Vermeil de Montserrat (XIVme sicle)
Z:Transcrit et/ou corrig par Michel BELLON - 2005-03-05
Z:Pour toute observation mailto:galouvielle@free.fr
M:3/4
L:1/4
Q:1/4=110
K:G
c2d | e2c | d2d | !breath!G2A | c2A | B2G | A2B/2A/2 | !breath!G2A | c2A | B2G | A2B/2A/2 HG3 |:
